X:1446
T:Tanz
C:Johann Christoph Demantius
O:Germany
B:Demantius 1601
R:Allemande
Z:Transcribed by Frank Nordberg - http://www.musicaviva.com
F:http://abc.musicaviva.com/tunes/demantius-johann-christoph/demantius-tanz-02.abc
M:C
L:1/4
Q:1/4=160
K:Gmix
V:1
GAB/c/d|cB/A/B2|cde/f/g|fe/d/e2|fgfe/d/|
V:2
GFEB,|CDG,2|CB,A,E,|F,G,C2|DEFG|
%
V:1
[1e4:|[2e3|:e|dc/B/AB|cB/A/BA|ed/c/Bc|
V:2
[1C4:|[2C3|:C|DEFE/D/|CDG,D|EFGF/E/|
%
V:1
dc/B/cA/B/|cdd^c|d3::d|Bc/d/ed|cd/e/fe|
V:2
DEA,A/G/|FDGA|D3::D|G/F/E/D/CD|A,B,/C/DE|
%
V:1
dedc/B/|^c>def|edcB/A/|[1B3:|[2B4|]
V:2
FCDE|A,2AD|CB,CD|[1G,3:|[2G,4|]
W:
W:
W:  From Musica Viva - http://www.musicaviva.com
W:  the Internet center for free sheet music downloads.


